src/main/resources/icons/AllIcons/objectBrowser/visibilitySort.svg

<!-- Copyright 2000-2021 JetBrains s.r.o. Use of this source code is governed by the Apache 2.0 license that can be found in the LICENSE file. -->
<svg xmlns="http://www.w3.org/2000/svg" xmlns:xlink="http://www.w3.org/1999/xlink" width="16" height="16" viewBox="0 0 16 16">
  <defs>
    <path id="visibilitysort-a" d="M2.5,1.5 C2.22385763,1.5 2,1.81180169 2,2.19642857 L2,3.80357143 C2,4.18819831 2.22385763,4.5 2.5,4.5 C2.77614237,4.5 3,4.18819831 3,3.80357143 L3,2.19642857 C3,1.81180169 2.77614237,1.5 2.5,1.5 Z M2.5,0.5 C3.32842712,0.5 4,1.17157288 4,2 L4,3.5 C4,4.32842712 3.32842712,5 2.5,5 C1.67157288,5 1,4.32842712 1,3.5 L1,2 C1,1.17157288 1.67157288,0.5 2.5,0.5 Z"/>
    <path id="visibilitysort-b" d="M2,1.5 C1.44771525,1.5 1,1.81180169 1,2.19642857 L1,3.5 L3,3.5 L3,2.19642857 C3,1.81180169 2.55228475,1.5 2,1.5 Z M4,3.5 L0,3.5 L0,2 C0,1.17157288 0.8954305,0.5 2,0.5 C3.1045695,0.5 4,1.17157288 4,2 L4,3.5 Z"/>
  </defs>
  <g fill="none" fill-rule="evenodd">
    <rect width="2" height="9" x="4" y="2" fill="#6E6E6E"/>
    <polygon fill="#6E6E6E" points="5 10 9 14 1 14" transform="matrix(1 0 0 -1 0 24)"/>
    <g transform="translate(10 7)">
      <rect width="5" height="4" y="3" fill="#DB5860"/>
      <use fill="#DB5860" fill-rule="nonzero" xlink:href="#visibilitysort-a"/>
    </g>
    <g transform="translate(8)">
      <rect width="5" height="4" x="2" y="3" fill="#59A869"/>
      <use fill="#59A869" fill-rule="nonzero" xlink:href="#visibilitysort-b"/>
    </g>
  </g>
</svg>

<svg xmlns="http://www.w3.org/2000/svg" xmlns:xlink="http://www.w3.org/1999/xlink" width="16" height="16" viewBox="0 0 16 16"><rect id="frame" width="16" height="16" fill="none"/><defs><path id="a" d="M2.5 1.5c-.276 0-.5.312-.5.696v1.608c0 .384.224.696.5.696s.5-.312.5-.696V2.196c0-.384-.224-.696-.5-.696zm0-1A1.5 1.5 0 0 1 4 2v1.5a1.5 1.5 0 0 1-3 0V2A1.5 1.5 0 0 1 2.5.5z"/><path id="b" d="M2 1.5c-.552 0-1 .312-1 .696V3.5h2V2.196c0-.384-.448-.696-1-.696zm2 2H0V2C0 1.172.895.5 2 .5S4 1.172 4 2v1.5z"/></defs><g fill="none" fill-rule="evenodd"><path fill="#6E6E6E" d="M4 2h2v9H4z"/><path fill="#6E6E6E" d="M5 14l4-4H1z"/><g transform="translate(10 7)" fill="#DB5860"><path d="M0 3h5v4H0z"/><use fill-rule="nonzero" xlink:href="#a"/></g><g transform="translate(8)" fill="#59A869"><path d="M2 3h5v4H2z"/><use fill-rule="nonzero" xlink:href="#b"/></g></g></svg>
